X: 20
% Old value - X: 1
T: Morrison's
R: jig
M: 6/8
L: 1/8
K: Edor
|:~E3 ~B3|EBE AFD|EDE B2c|dcB AFD|
~E3 ~B3|EBE AFD|G3 FGA|dAG FED:|
Bee fee|aee fee|Bee fee|a2g fed|
Bee fee|aee fee|gfe d2A|BAG FGA|
Bee fee|aee fee|Bee fee|faf def|
g3 gfe|def g2d|edc d2A|BAG FED|

